X: 7630
T:Polska
C:.e. Erik Nilsson
R:Polska
O:Sweden
A:J\"amtland
D:Caprice "Vall- Trall \& Lapp-Nils L\aa{t}ar", CAP21489
M:3/4
K:D
A|\
A>d e>f d>e| c>d (3efg f>a| (3gag (3fed e>c| (3def (3gag (3fed|\
c>d e>f d>e| c>d (3efg f>a\
|1 (3gag (3fed cd| e2 e3 :|2 (3gag (3fed ec| d2 d3|:\
d|\
a2 (3gab a>f| d2 e2 f>a| (3gag (3fed e>c| (3def (3gag (3fed|
a2 (3gab a>f| d2 e2 f>a\
|1 (3gag (3fed dc| A2 A3:|2\
   (3gag fed ec| d2 d3|]
